!!!OTL: ICH KANN UND MAG NICHT FROEHLICH SEIN
!!!ARE: Europa, Mitteleuropa, Deutschland, Wuettemberg, Stuttgart; Mannheim
!!!SCT: E0766
!!!YEM: Copyright 1995, estate of Helmut Schaffrath.
**kern
*ICvox
*Ivox
*M3/4
*k[f#]
*G:
{8d
8g
8a
=1
8g
8dd
8cc
8b
8a
8g
=2
4a
8r}
{8d
8g
8a
=3
8g
8dd
8cc
8b
8a
8g
=4
4a
8r}
{8dd
8b
8cc
=5
4dd
8ee
8dd
8cc
8b
=6
4cc
8dd}
{16dd
16cc
8b
8dd
=7
4b
8r}
==
!!!AGN: Abschieds - Lied, Liebe
!!!ONB: ESAC (Essen Associative Code) Database: ERK2
!!!AMT: simple triple
!!!AIN: vox
!!!EED: Helmut Schaffrath
!!!EEV: 1.0
*-
